!!!!SEGMENT: pl-gd--ee-2628--006-004_stabile-annibale--il-terzo-libro-de-madrigali-a-cinque-voci-rasserenar-si-vidde.krn
!!!cenid: 15xx:1071
!!!COM: Stabile, Annibale
!!!COM-rismID: pe30009662
!!!CDT: ~1535-1595/04
!!!CNT: Italian
!!!GTL: Il terzo libro de madrigali a cinque voci
!!!OTL: Rasserenar si vidde
!!!OMV: 004
!!!PDT: 1585
!!!AGN:
!!!SMS-siglum: PL-GD
!!!SMS-shelfmark: Ee 2628
!!!SMS-variant:
!!!SMS-altvar:
!!!SMS-shelfwork: 006-004 G
!!!NIFC-rismSourceID: 1001203361
!!!NIFC-rismChildID: 990060530
!!!NIFC-islandoraID: pl-gd:66139
!!!URL-pdf-islandora: https://repozytorium.nifc.pl/islandora/object/pl-gd%3A66139/datastream/PDF/view
!!!URL-scan: https://polish.musicsources.pl/pl/lokalizacje/galeria/klocki-introligatorskie/673 @EN{Scan on Polish Music Sources Website} @PL{Skany w portalu Dziedzictwo Muzyki Polskiej w otwartym dostępie}
!!!ONB-nifc: UWAGA: Canto: s. 90-101, Tenore: s. 246-257, Basso: s. 402-413, Quinto: s. 724-735. Dla głosu Alto proszę skorzystać z https://pbc.gda.pl/dlibra/publication/87582/edition/79411/content, str. 25-48. Uwaga: utwory podzielone wg spisu treści dostępnych na końcu ksiąg – proszę sprawdzać sąsiednie tytuły. Głos Quinto proszę umieszczać wg ambitusu (może się różnić w zależności od utworu).
!!!AIN: 1 alto 1 bass 1 soprn 1 tenor 1 vox
!!!key: F
**kern	**text	**kern	**text	**kern	**text	**kern	**text	**kern	**text
*part5	*part5	*part4	*part4	*part3	*part3	*part2	*part2	*part1	*part1
*staff5	*staff5	*staff4	*staff4	*staff3	*staff3	*staff2	*staff2	*staff1	*staff1
*I"BASSO	*	*I"TENORE	*	*I"ALTO	*	*I"QVINTO	*	*I"CANTO	*
*I'B	*	*I'T	*	*I'A	*	*I'V	*	*I'S	*
*ICvox	*	*ICvox	*	*ICvox	*	*ICvox	*	*ICvox	*
*Ibass	*	*Itenor	*	*Ialto	*	*Ivox	*	*Isoprn	*
*clefF4	*	*clefC4	*	*clefC3	*	*clefC1	*	*clefC1	*
*k[b-]	*	*k[b-]	*	*k[b-]	*	*k[b-]	*	*k[b-]	*
*F:	*	*F:	*	*F:	*	*F:	*	*F:	*
*M4/4	*	*M4/4	*	*M4/4	*	*M4/4	*	*M4/4	*
*met(C)	*	*met(C)	*	*met(C)	*	*met(C)	*	*met(C)	*
=1-	=1-	=1-	=1-	=1-	=1-	=1-	=1-	=1-	=1-
!LO:TX:a:t=Prima parte	!	!LO:TX:a:t=Prima parte	!	!LO:TX:a:t=Prima parte	!	!LO:TX:a:t=Prima parte	!	!LO:TX:a:t=Prima parte	!
2F\	RAſ-	2c\	RAſ-	2f\	RAſ-	2a\	RAſ-	2cc\	RAſ-
4F\	-ſe-	4c\	-ſe-	4f\	-ſe-	4a\	-ſe-	4cc\	-ſe-
4F\	-re-	4c\	-re-	4f\	-re-	4a\	-re-	4cc\	-re-
=2-	=2-	=2-	=2-	=2-	=2-	=2-	=2-	=2-	=2-
2BB-/	-nar	2B-\	-nar	2f\	-nar	2b-\	-nar	2dd\	-nar
2F\	ſi	4c\	ſi	2f\	ſi	2a\	ſi	2cc\	ſi
.	.	2c\	vid-	.	.	.	.	.	.
=3-	=3-	=3-	=3-	=3-	=3-	=3-	=3-	=3-	=3-
2C/	vid-	.	.	2e-X\	vid-	1g	vid-	2cc\	vid-
.	.	4G/	-de	.	.	.	.	.	.
!	!	!	!	!	!	!	!	!LO:N:acc=#	!
4GG/	-de	2r	.	2.d\	-de	.	.	4bn\	-de
2G\	l'a-	.	.	.	.	.	.	2b\	l'a-
=4-	=4-	=4-	=4-	=4-	=4-	=4-	=4-	=4-	=4-
.	.	4r	.	.	.	2g/	de	.	.
4C/	-ria	2c\	l'a-	2g\	l'a-	.	.	4cc\	-ria
2c\	e'l cie-	.	.	.	.	4e/	l'a-	2cc\	e'l cie-
.	.	4F/	-ria	4f\	-ria	4a\	-ria	.	.
=5-	=5-	=5-	=5-	=5-	=5-	=5-	=5-	=5-	=5-
2C/	-lo	2c\	e'l cie-	2eny\	e'l cie-	2g/	ciel-	2cc\	-lo
*custos:F	*	*	*	*	*	*	*	*custos:cc	*
!LO:LB:g=original	!	! F	!	!	!	!	!	!LO:LB:g=original	!
4r	.	2F/	-lo	2f\	-lo	1a\	-lo	4r	.
4F\	Et	.	.	.	.	.	.	4cc\	Et
*	*	*custos:F	*	*	*	*	*	*	*
!	!	!LO:LB:g=original	!	!	!	!	!	!	!
=6-	=6-	=6-	=6-	=6-	=6-	=6-	=6-	=6-	=6-
4F\	le	4r	.	4r	.	.	.	4cc\	le
!	!	!	!	! f	!	!	!	!	!
4F\	cam-	4F/	Et	4f\	Et	.	.	4cc\	cam-
*	*	*	*	*custos:f	*	*	*	*	*
!	!	!	!	!LO:LB:g=original	!	!	!	!	!
2D\	-pa-	4A/	le	4f\	le	2r	.	2dd\	-pa-
.	.	4B-\	cam-	4f\	cam-	.	.	.	.
=7-	=7-	=7-	=7-	=7-	=7-	=7-	=7-	=7-	=7-
2C/	-gne	2c\	-pa-	2e\	-pa-	4r	.	2g/	-gne
!	!	!	!	!	!	! cc	!	!	!
.	.	.	.	.	.	4cc\	Et	.	.
*	*	*	*	*	*	*custos:cc	*	*	*
!	!	!	!	!	!	!LO:LB:g=original	!	!	!
2r	.	2F/	-gne	4f\	-gne	4cc\	le	2r	.
*	*ij	*	*	*	*ij	*	*	*	*
.	.	.	.	4c\	Et	4cc\	cam-	.	.
=8-	=8-	=8-	=8-	=8-	=8-	=8-	=8-	=8-	=8-
2r	.	1r	.	4d\	le	2b-\	-pa-	1r	.
.	.	.	.	4e\	cam-	.	.	.	.
2F\	Et	.	.	2f\	-pa-	2a\	-gne	.	.
=9-	=9-	=9-	=9-	=9-	=9-	=9-	=9-	=9-	=9-
*	*	*	*	*	*	*	*ij	*	*
4F\	le	2r	.	2c\	-gne	2f/	Et	4r	.
*	*	*	*ij	*	*Xij	*	*	*	*ij
4F\	cam-	.	.	.	.	.	.	4f/	Et
2D/	-pa-	4r	.	2r	.	4f/	le	4a\	le
.	.	4F/	Et	.	.	4f/	cam-	4b-y\	cam-
=10-	=10-	=10-	=10-	=10-	=10-	=10-	=10-	=10-	=10-
2C/	-gne	4G/	le	2r	.	2e/	-pa-	2cc\	-pa-
.	.	4A/	cam-	.	.	.	.	.	.
*	*Xij	*	*	*	*	*	*	*	*
2r	.	2B-\	-pa-	4.d\	ver-	2d/	-gne	1f/	-gne
.	.	.	.	8c/	-deg-	.	.	.	.
*custos:BB-	*	*	*	*	*	*	*Xij	*	*
!LO:LB:g=original	!	!	!	!	!	!	!	!	!
=11-	=11-	=11-	=11-	=11-	=11-	=11-	=11-	=11-	=11-
4.BB-/	ver-	2F/	-gne	4B-/	-giar	4.dd\	ver-	.	.
.	.	.	.	4B-/	d'in-	.	.	.	.
8C/	-deg-	.	.	.	.	8cc\	-deg-	.	.
*	*	*	*Xij	*custos:f	*	*	*	*	*Xij
!	!	!	!	!LO:LB:g=original	!	!	!	!	!
4.D\	-giar	2r	.	2f\	tor-	4b-\	-giar	2r	.
.	.	.	.	.	.	4b-\	d'in-	.	.
8E\	d'in-	.	.	.	.	.	.	.	.
*	*	*	*	*	*	*custos:a	*	*	*
!	!	!	!	!	!	!LO:LB:g=original	!	!	!
=12-	=12-	=12-	=12-	=12-	=12-	=12-	=12-	=12-	=12-
2.F\	-tor-	4.F/	ver-	2f\	-no	8a\	tor-	4.cc\	ver-
.	.	.	.	.	.	8g\	.	.	.
.	.	.	.	.	.	8a\	.	.	.
.	.	8G/	-deg-	.	.	8b-\	.	8b-\	-deg-
*	*	*custos:A	*	*	*ij	*	*	*custos:a	*
!	!	!LO:LB:g=original	!	!	!	!	!	!LO:LB:g=original	!
.	.	4.A/	-giar	4.c\	ver-	2cc\	.	4a\	-giar
8E\	.	.	.	.	.	.	.	4f/	d'in-
8D\	.	8B-\	d'in-	8d\	-deg-	.	.	.	.
=13-	=13-	=13-	=13-	=13-	=13-	=13-	=13-	=13-	=13-
1C	.	2c\	-tor-	4e\	-giar	1cc	-no	4a\	-tor-
.	.	.	.	4f\	d'in-	.	.	8g/	.
.	.	.	.	.	.	.	.	8f/	.
.	.	2c\	no	2e\	tor-	.	.	2g/	.
=14-	=14-	=14-	=14-	=14-	=14-	=14-	=14-	=14-	=14-
1F	no	2r	.	2f\	-no	2r	.	1a	-no
*	*	*	*	*	*Xij	*	*	*	*
.	.	2F/	et	2f\	et	2cc\	et	.	.
=15-	=15-	=15-	=15-	=15-	=15-	=15-	=15-	=15-	=15-
2r	.	4.B-\	gl'al-	4f\	gl'al-	4.dd\	al-	2r	.
.	.	.	.	4d\	-be-	.	.	.	.
.	.	8B-\	-be-	.	.	8dd\	-be-	.	.
!	!	!	!	!	!	!LO:N:acc=#	!	!	!
4r	.	4G/	-ri	4d\	-ri	4bn\	-ri	4r	.
4C/	et	4c\	fio-	4e\	fio-	4cc\	fio-	4g/	et
=16-	=16-	=16-	=16-	=16-	=16-	=16-	=16-	=16-	=16-
4.F\	gl'al-	4F/	-rir	2f\	-rir	2cc\	-rir	4.a\	al-
.	.	4c\	et	.	.	.	.	.	.
8F\	-be-	.	.	.	.	.	.	8a\	-be-
4D/	-ri	4d\	far-	4r	.	4r	.	4f#X/	-ri
4G\	fio-	4B-\	-ſi	4d\	fio-	4dd\	et	4g/	fio-
=17-	=17-	=17-	=17-	=17-	=17-	=17-	=17-	=17-	=17-
4C/	-rir	4c\	ador-	2g\	-rir	4.cc\	far-	4e/	-rir
4G\	et	4C/	-no	.	.	.	.	4e/	et
.	.	.	.	.	.	8b-y\	.	.	.
*custos:A	*	*	*	*	*	*	*	*	*
!LO:LB:g=original	!	!	!	!	!	!	!	!	!
4A\	far-	2r	.	4c/	et	4a\	ſi	4e/	far-
4F\	-ſi	.	.	4d\	far-	4a\	a-	4fny/	-ſi
=18-	=18-	=18-	=18-	=18-	=18-	=18-	=18-	=18-	=18-
!	!	!	!	!LO:N:acc=#	!	!	!	!	!
2G\	a dor-	1r	.	4Bn/	-ſi	1g	-dor-	4e/	a-
.	.	.	.	4.c/	a-	.	.	8d/	-dor-
.	.	.	.	.	.	.	.	8c/	.
2GG/	-no	.	.	.	.	.	.	2d/	.
!	!	!	!	!LO:N:acc=#	!	!	!	!	!
.	.	.	.	8Bn/	-dor-	.	.	.	.
.	.	.	.	4B/	.	.	.	.	.
*	*	*	*	*custos:c	*	*	*	*	*
!	!	!	!	!LO:LB:g=original	!	!	!	!	!
=19-	=19-	=19-	=19-	=19-	=19-	=19-	=19-	=19-	=19-
00r	.	2r	.	2c\	-no	2g/	-no	2e/	-no
*	*	*	*	*	*	*	*	*custos:cc	*
!	!	!	!	!	!	!	!	!LO:LB:g=original	!
.	.	2.c\	Di	2.e\	Di	2.g/	Di	2.cc\	Di
=20-	=20-	=20-	=20-	=20-	=20-	=20-	=20-	=20-	=20-
.	.	.	.	.	.	.	.	.	.
.	.	4A/	ca-	4f#X\	cano-	4a\	cano-	4cc\	cano-
*	*	*	*	*	*	*custos:d	*	*	*
!	!	! F	!	!	!	!LO:LB:g=original	!	!LO:N:acc=#	!
.	.	2G/	-no-	2g\	-ri	2d/	-ri	2bn\	-ri
*	*	*custos:F	*	*	*	*	*	*	*
!	!	!LO:LB:g=original	!	!	!	!	!	!	!
=21-	=21-	=21-	=21-	=21-	=21-	=21-	=21-	=21-	=21-
.	.	4F/	-ri	4a\	au-	4f/	augel-	4cc\	augel-
.	.	4F/	augel-	4a\	-gel-	4f/	-let-	4cc\	-let-
.	.	2.c\	-letti	8g\	-let-	8e/	.	2.cc\	-ti
.	.	.	.	8fny\	.	8f/	.	.	.
.	.	.	.	8e\	.	8g\	.	.	.
.	.	.	.	8d\	.	8a\	.	.	.
=22-	=22-	=22-	=22-	=22-	=22-	=22-	=22-	=22-	=22-
.	.	.	.	4e\	-ti	4g/	ti	.	.
.	.	4G/	il	4d\	il	4g/	il	4b-y\	il
.	.	4B-\	ver-	4d\	ver-	4f/	ver-	4b-\	ver-
.	.	4c\	-de	4e\	-de	4e/	-de	4g/	-de
=23-	=23-	=23-	=23-	=23-	=23-	=23-	=23-	=23-	=23-
0r	.	2F/	ſte-	2f\	ſte-	2a\	ſte-	2cc\	ſte-
.	.	4c\	-lo	4e\	-lo	4g/	-lo	2cc\	-lo
.	.	4c\	Et	4e\	Et	4g/	Et	.	.
=24-	=24-	=24-	=24-	=24-	=24-	=24-	=24-	=24-	=24-
!	!	!LO:N:acc=#	!	!	!	!	!	!	!
.	.	4Bn\	ſcac-	4d\	ſcac-	4g/	ſcac-	1r	.
.	.	4.c\	-cia-	4.e\	-cia-	4.g/	-cia-	.	.
.	.	8c\	-te	8e\	-te	8g/	-te	.	.
.	.	4c\	da	4e\	da	4g/	da	.	.
*	*	*	*	*custos:f	*	*	*	*	*
!	!	!	!	!LO:LB:g=original	!	!	!	!	!
=25-	=25-	=25-	=25-	=25-	=25-	=25-	=25-	=25-	=25-
2r	.	2F/	col-	2f\	col-	2.a\	col-	2r	.
2F\	Et	2A/	-lie	4c/	-lie	.	.	4r	.
.	.	.	.	2c/	neue	4f/	-li	4f/	Et
=26-	=26-	=26-	=26-	=26-	=26-	=26-	=26-	=26-	=26-
4E\	ſcac-	4G/	neue	.	.	2r	.	4g/	ſcac-
4.F\	-cia-	4F/	et	4c/	et	.	.	4.a\	-cia-
.	.	2c\	ge-	2f\	ge-	4r	.	.	.
8F\	-te	.	.	.	.	.	.	8a\	-te
4F\	da	.	.	.	.	4cc\	da	4a\	da
*	*	*	*	*	*	*custos:dd	*	*	*
!	!	!	!	!	!	!LO:LB:g=original	!	!	!
=27-	=27-	=27-	=27-	=27-	=27-	=27-	=27-	=27-	=27-
2.BB-/	col-	2B-y\	-lo	2f\	-lo	2.dd\	col-	2.b-\	col-
*	*	*	*	*	*	*	*	*	*
.	.	2r	.	4r	.	.	.	.	.
4FF/	-lie	.	.	4f\	et	4cc\	-lie	2a\	-lie
*	*	*custos:c	*	*	*	*	*	*	*
!	!	!LO:LB:g=original	!	!	!	!	!	!	!
=28-	=28-	=28-	=28-	=28-	=28-	=28-	=28-	=28-	=28-
2GG/	neue	1r	.	4d\	neue	2b-\	neue	.	.
.	.	.	.	4d\	e	.	.	2g/	neue
2AA/	et	.	.	2c/	ge-	2a\	et	.	.
.	.	.	.	.	.	.	.	4f/	et
*	*	*	*	*	*	*	*	*custos:e	*
!	!	!	!	!	!	!	!	!LO:LB:g=original	!
=29-	=29-	=29-	=29-	=29-	=29-	=29-	=29-	=29-	=29-
2C/	ge-	2r	.	1c	-lo	2g/	ge-	2e/	ge-
4C/	-lo	2c\	La	.	.	2g/	lo	4e/	-lo
4C/	La	.	.	.	.	.	.	4e/	La
*custos:D	*	*	*	*	*	*	*	*	*
!LO:LB:g=original	!	!	!	!	!	!	!	!	!
=30-	=30-	=30-	=30-	=30-	=30-	=30-	=30-	=30-	=30-
2D/	Pri-	4A/	Pri-	1r	.	2r	.	4f/	Pri-
.	.	4B-\	-ma-	.	.	.	.	4f/	-ma-
2E\	-ma-	2G/	-ve-	.	.	4r	.	2g/	-ve-
.	.	.	.	.	.	4cc\	La	.	.
=31-	=31-	=31-	=31-	=31-	=31-	=31-	=31-	=31-	=31-
2F\	-ve-	4F/	-ra	2r	.	4a\	Pri-	2c/	-ra
.	.	2f\	far'	.	.	4f/	-ma-	.	.
2C/	-ra	.	.	2c/	La	2g/	-ve-	4r	.
.	.	4e\	a	.	.	.	.	4cc\	La
=32-	=32-	=32-	=32-	=32-	=32-	=32-	=32-	=32-	=32-
2r	.	4f\	noi	2d\	Pri-	2f/	-ra	4a\	Pri-
.	.	4B-\	ri-	.	.	.	.	4b-\	-ma-
*	*ij	*	*	*	*	*	*	*	*
2C/	La	2.c\	-tor-	2e\	-ma-	2r	.	2g/	-ve-
=33-	=33-	=33-	=33-	=33-	=33-	=33-	=33-	=33-	=33-
4AA/	Pri-	.	.	4f\	-ve-	2r	.	4a\	-ra
4BB-/	-ma-	4E/	-no	4d\	-ra	.	.	2f/	far'
2GG/	-ve-	2r	.	2B-y/	fa-	4r	.	.	.
.	.	.	.	.	.	2b-\	far'	4e/	a
=34-	=34-	=34-	=34-	=34-	=34-	=34-	=34-	=34-	=34-
4FF/	-ra	0r	.	2c/	-r'a	.	.	2f/	noi
*	*Xij	*	*	*	*	*	*	*	*
2F\	fa-	.	.	.	.	4a\	a	.	.
.	.	.	.	4d\	noi	4b-\	noi	4r	.
4E\	-r'a	.	.	8c/	.	4g/	ri-	2cc\	far'
.	.	.	.	8B-/	.	.	.	.	.
*	*	*	*	*custos:A	*	*	*	*	*
!	!	!	!	!LO:LB:g=original	!	!	!	!	!
=35-	=35-	=35-	=35-	=35-	=35-	=35-	=35-	=35-	=35-
4F\	noi	.	.	4A/	.	1.f	-tor-	.	.
4BB-/	ri-	.	.	4d\	ri-	.	.	4b-\	a
4.D/	-tor-	.	.	2d\	-tor-	.	.	4a\	noi
.	.	.	.	.	.	.	.	4f/	ri-
8E\	.	.	.	.	.	.	.	.	.
=36-	=36-	=36-	=36-	=36-	=36-	=36-	=36-	=36-	=36-
2F\	.	2r	.	1c	-no-	.	.	2a\	-tor-
2C/	-no	4r	.	.	.	2e/	no	2g/	-no
.	.	4c\	Et	.	.	.	.	.	.
*	*	*	*	*	*	*custos:cc	*	*custos:a	*
!	!	!	!	!	!	!LO:LB:g=original	!	!LO:LB:g=original	!
=37-	=37-	=37-	=37-	=37-	=37-	=37-	=37-	=37-	=37-
4r	.	4c\	me-	4r	.	4r	.	4r	.
4F\	Et	4c\	-nar	4f\	Et	4cc\	Et	4a\	Et
*custos:F	*	*	*	*	*	*	*	*	*
!LO:LB:g=original	!	!	!	!	!	!	!	!	!
4F\	me-	2.F/	feco	1f\	me-	4cc\	me-	4a\	me-
4F\	-nar	.	.	.	.	4cc\	-nar	4a\	-nar
=38-	=38-	=38-	=38-	=38-	=38-	=38-	=38-	=38-	=38-
2BB-/	feco	.	.	.	.	2dd\	feco	2b-\	fe-
.	.	4D/	vn	.	.	.	.	.	.
*	*	*custos:F	*	*	*	*	*	*	*
!	!	!LO:LB:g=original	!	!	!	!	!	!	!
2FF/	vn	8F/	chia-	2f\	nar	2cc\	vn	2a\	-co
.	.	8G/	.	.	.	.	.	.	.
.	.	8A/	.	.	.	.	.	.	.
.	.	8F/	.	.	.	.	.	.	.
=39-	=39-	=39-	=39-	=39-	=39-	=39-	=39-	=39-	=39-
2C/	chia-	4G/	.	2e-X\	feco	2cc\	chia-	4.g/	vn
.	.	4G/	-ro	.	.	.	.	.	.
.	.	.	.	.	.	.	.	8a\	chia-
2GG/	ro e	8G/	e	2d\	vn	2dd\	-ro e	8b-\	.
.	.	8A/	lie-	.	.	.	.	8cc\	.
.	.	8B-\	.	.	.	.	.	2dd\	.
.	.	8c\	.	.	.	.	.	.	.
=40-	=40-	=40-	=40-	=40-	=40-	=40-	=40-	=40-	=40-
4GG/	lie-	4d\	.	2G/	chia-	4b-\	lie	.	.
4GG/	-to	4B-\	-to	.	.	4g/	-to	4dd\	ro
2D/	gior-	4A/	gior-	2A/	-ro	2f#X/	gior-	4.dd\	e lie-
.	.	2D/	-no	.	.	.	.	.	.
.	.	.	.	.	.	.	.	8cc\	.
=41-	=41-	=41-	=41-	=41-	=41-	=41-	=41-	=41-	=41-
2GG/	-no	.	.	8B-/	e	4g/	-no	4.b-\	.
.	.	.	.	8A/	lie-	.	.	.	.
.	.	4G/	e-	8B-/	.	4g/	e	.	.
.	.	.	.	8c/	.	.	.	8a\	.
2r	.	4G/	-lie-	4d\	.	4b-\	lie-	4g/	.
.	.	4C/	-to	4e-X\	to	4cc\	to	4g/	-to
=42-	=42-	=42-	=42-	=42-	=42-	=42-	=42-	=42-	=42-
2r	.	2D/	gior-	1.d	-gior-	2a\	gior-	2f#X/	gior-
!	!	!	!	!	!	!LO:N:acc=#	!	!	!
2GG/	Il	2G/	-no	.	.	1bn\	no	2g/	-no
=43-	=43-	=43-	=43-	=43-	=43-	=43-	=43-	=43-	=43-
1G	ſol	2r	.	.	.	.	.	2r	.
.	.	2C/	Il	1eny\	no	2cc\	Il	1g\	Il
*	*ij	*	*	*custos:f	*	*	*	*custos:a	*
!	!	!	!	!LO:LB:g=original	!	!	!	!LO:LB:g=original	!
=44-	=44-	=44-	=44-	=44-	=44-	=44-	=44-	=44-	=44-
2r	.	1c	ſol	.	.	0.cc	ſol	.	.
2F\	Il	.	.	2.f\	Il	.	.	2a\	ſol
*	*	*	*ij	*	*	*	*	*	*ij
=45-	=45-	=45-	=45-	=45-	=45-	=45-	=45-	=45-	=45-
1c	ſol	2r	.	.	.	.	.	1g	Il
.	.	.	.	8e\	.	.	.	.	.
.	.	.	.	8d\	.	.	.	.	.
.	.	2C/	Il	2e\	.	.	.	.	.
=46-	=46-	=46-	=46-	=46-	=46-	=46-	=46-	=46-	=46-
2r	.	2F/	ſol	1f	ſol	.	.	2a\	ſol
*	*Xij	*custos:A	*Xij	*	*	*	*	*	*Xij
!	!	!LO:LB:g=original	!	!	!	!	!	!	!
2F\	co-	2.A/	co-	.	.	.	.	2cc\	co-
=47-	=47-	=47-	=47-	=47-	=47-	=47-	=47-	=47-	=47-
2D/	-per-	.	.	2f\	-co-	2r	.	2dd\	-per-
.	.	2F/	-per-	.	.	.	.	.	.
*custos:BB-	*	*	*	*	*	*	*	*	*
!LO:LB:g=original	!	!	!	!	!	! a	!	!	!
2BB-/	-to	.	.	2.f\	-per-	2b-y\	co-	2dd\	-to
.	.	4G/	-to	.	.	.	.	.	.
*	*	*	*	*	*	*custos:a	*	*	*
!	!	!	!	!	!	!LO:LB:g=original	!	!	!
=48-	=48-	=48-	=48-	=48-	=48-	=48-	=48-	=48-	=48-
2F\	qia	2.A/	qia	.	.	2a\	-per-	2cc\	gia
.	.	.	.	4c/	-to	.	.	.	.
2D/	d'o-	.	.	2d\	gio	2fny/	to	4r	.
.	.	4F/	d'o-	.	.	.	.	2a\	d'o-
=49-	=49-	=49-	=49-	=49-	=49-	=49-	=49-	=49-	=49-
2E\	-ſcu-	2G/	-ſcu-	2c/	d'o-	2.cc\	gia	.	.
.	.	.	.	.	.	.	.	2g/	-ſcu-
2F\	-ro	2A/	-ro	2.c/	ſcu-	.	.	.	.
.	.	.	.	.	.	4a\	d'o-	4fny/	-ro
=50-	=50-	=50-	=50-	=50-	=50-	=50-	=50-	=50-	=50-
1C	ve-	1G	ve-	.	.	4cc\	ſcu-	4.e/	ve-
.	.	.	.	4c/	-ro	4cc\	ro	.	.
.	.	.	.	.	.	.	.	8d/	.
.	.	.	.	2c/	ve-	2cc\	ve-	2e/	.
=51-	=51-	=51-	=51-	=51-	=51-	=51-	=51-	=51-	=51-
1FF	-lo	2F/	-lo	1c	-lo	1a	-lo	1f	-lo
.	.	4r	.	.	.	.	.	.	.
.	.	4c\	Et	.	.	.	.	.	.
=52-	=52-	=52-	=52-	=52-	=52-	=52-	=52-	=52-	=52-
4r	.	4c\	me-	4r	.	4r	.	4r	.
4F\	Et	4c\	-nar	4f\	Et	4a\	Et	4cc\	Et
4F\	me-	2.F/	ſe-	1f\	me-	4a\	me-	4cc\	me-
4F\	-nar	.	.	.	.	4a\	-nar	4cc\	-nar
=53-	=53-	=53-	=53-	=53-	=53-	=53-	=53-	=53-	=53-
2BB-/	ſeco	.	.	.	.	2b-\	ſeco	2dd\	ſe-
.	.	4D/	-co	.	.	.	.	.	.
2FF/	vn	8F/	vn	2f\	-nar	2a\	vn	2cc\	-co
.	.	8G/	chia-	.	.	.	.	.	.
.	.	8A/	.	.	.	.	.	.	.
.	.	8F/	.	.	.	.	.	.	.
=54-	=54-	=54-	=54-	=54-	=54-	=54-	=54-	=54-	=54-
2C/	chia-	4G/	.	2e-X\	ſeco	4.g/	chia-	2cc\	vn
.	.	4G/	-ro	.	.	.	.	.	.
.	.	.	.	.	.	8a\	.	.	.
2GG/	-ro e	8G/	e	2d\	vn	8b-\	.	2dd\	chia-
.	.	8A/	lie-	.	.	8cc\	.	.	.
.	.	8B-\	.	.	.	2dd\	.	.	.
.	.	8c\	.	.	.	.	.	.	.
*	*	*custos:d	*	*custos:G	*	*	*	*custos:b-	*
!	!	!LO:LB:g=original	!	!LO:LB:g=original	!	!	!	!LO:LB:g=original	!
=55-	=55-	=55-	=55-	=55-	=55-	=55-	=55-	=55-	=55-
4GG/	lie-	4d\	.	2G/	chia-	.	.	4b-\	-ro
4GG/	-to	4B-\	-to	.	.	4dd\	ro	4g/	e lie-
2D/	gior-	2A/	gior-	2A/	-ro e	4.dd\	e lie-	2f#X/	-to
.	.	.	.	.	.	8cc\	.	.	.
*custos:GG	*	*	*	*	*	*custos:b-	*	*	*
!LO:LB:g=original	!	!	!	!	!	!LO:LB:g=original	!	!	!
=56-	=56-	=56-	=56-	=56-	=56-	=56-	=56-	=56-	=56-
2GG/	-no	4G/	-no	8B-/	lie-	4.b-\	.	4g/	gior-
.	.	.	.	8A/	.	.	.	.	.
.	.	4G/	e	8B-/	.	.	.	4g/	-no
.	.	.	.	8c/	.	8a\	.	.	.
2r	.	4G/	lie-	4d\	.	4g/	.	4b-\	e lie-
.	.	4C/	-to	4e-X\	-to	4g/	to	4cc\	-to
=57-	=57-	=57-	=57-	=57-	=57-	=57-	=57-	=57-	=57-
2r	.	2D/	gior-	1.d	gior-	2f#X/	gior-	2a\	gior-
!	!	!	!	!	!	!	!	!LO:N:acc=#	!
2GG/	Il	2G/	-no	.	.	2g/	-no	1bn\	-no
=58-	=58-	=58-	=58-	=58-	=58-	=58-	=58-	=58-	=58-
1G	ſol	2r	.	.	.	2r	.	.	.
.	.	2C/	Il	1eny\	nol	1g\	Il	2cc\	Il
=59-	=59-	=59-	=59-	=59-	=59-	=59-	=59-	=59-	=59-
2r	.	1c	ſol	.	.	.	.	0cc	ſol
*	*ij	*	*	*	*	*	*	*	*
2F\	Il	.	.	2.f\	Il	2a\	ſol	.	.
=60-	=60-	=60-	=60-	=60-	=60-	=60-	=60-	=60-	=60-
1c	ſol	2r	.	.	.	1g	Il	.	.
.	.	.	.	8e\	.	.	.	.	.
.	.	.	.	8d\	.	.	.	.	.
.	.	2C/	Il	2e\	.	.	.	.	.
*	*Xij	*	*	*	*	*	*	*	*
=61-	=61-	=61-	=61-	=61-	=61-	=61-	=61-	=61-	=61-
2r	.	2F/	ſol	2f\	ſol	2a\	ſol	2r	.
2F\	co-	2A/	co-	2f\	co-	2a\	co-	2cc\	co-
=62-	=62-	=62-	=62-	=62-	=62-	=62-	=62-	=62-	=62-
*col	*	*col	*	*col	*	*col	*	*col	*
1D	-per-	1F	-per-	1f	-per-	1b-	-per-	1dd	-per-
=63-	=63-	=63-	=63-	=63-	=63-	=63-	=63-	=63-	=63-
2BB-/	-to	2B-\	-to	2f\	-to	2b-\	-to	2dd\	-to
1F\	gia	1c\	gia	1f\	gia	1a\	gia	1cc\	gia
=64-	=64-	=64-	=64-	=64-	=64-	=64-	=64-	=64-	=64-
2C/	d'o-	2c\	d'o-	2e\	d'o-	2g/	d'o-	2cc\	d'o-
=65-	=65-	=65-	=65-	=65-	=65-	=65-	=65-	=65-	=65-
1AA	-ſcu-	1C	-ſcu-	1f	-ſcu-	1a	-ſcu-	1cc	-ſcu-
=66-	=66-	=66-	=66-	=66-	=66-	=66-	=66-	=66-	=66-
1BB-	-to	1D	-to	1d	-to	1fny	-to	1b-y	-to
=67-	=67-	=67-	=67-	=67-	=67-	=67-	=67-	=67-	=67-
1FF	ve-	1F	ve-	1c	ve-	1f	ve-	1a	ve-
*Xcol	*	*Xcol	*	*Xcol	*	*Xcol	*	*Xcol	*
=68-	=68-	=68-	=68-	=68-	=68-	=68-	=68-	=68-	=68-
00C	-lo.	00G	-lo.	00c/	-lo.	00e	-lo.	00g	-lo.
==	==	==	==	==	==	==	==	==	==
*-	*-	*-	*-	*-	*-	*-	*-	*-	*-
!!!system-decoration: [(s1,s2,s3,s4,s5)]
!!!ENC: Marta Opryszak
!!!END: 2022-07-10
!!!ENC: Jan Barakat
!!!END: 2022-08-01
!!!YEC: Copyright 2022 Narodowy Instytut Fryderyka Chopina (https://polishscores.org)
!!!YEM: License CC-BY-4.0 (https://creativecommons.org/licenses/by/4.0)
